/* XPM */
static char *horreur_so[] = {
"64 64 64 1",
"a c #E1C850",
"b c #695C52",
"c c #645D56",
"d c #54623E",
"e c #4E4A46",
"f c #48433E",
"g c #443C38",
"h c #303A25",
"i c #2E3823",
"j c #2D3622",
"k c #5A2A18",
"l c #36302E",
"m c #352F2D",
"n c #342E2C",
"o c #332D2B",
"p c #322C2A",
"q c #312B29",
"r c #302A28",
"s c #2F2927",
"t c #2E2826",
"u c #2C3522",
"v c #2B3321",
"w c #293220",
"x c #28311F",
"y c #272F1E",
"z c #262D1D",
"A c #252C1D",
"B c #262B1F",
"C c #242B1C",
"D c #252820",
"E c #23291C",
"F c #22281B",
"G c #2D2725",
"H c #2C2624",
"I c #2B2523",
"J c #292522",
"K c #292321",
"L c #23271E",
"M c #22271C",
"N c #23261E",
"O c #21261A",
"P c #20251A",
"Q c #21241C",
"R c #1F2318",
"S c #282220",
"T c #27211F",
"U c #26201E",
"V c #1F211A",
"W c #1D2117",
"X c #1D1F18",
"Y c #1A1E16",
"Z c #191B15",
"0 c #161813",
"1 c #131410",
"2 c #10100D",
"3 c #100D0D",
"4 c #0D0D0C",
"5 c #0D0C0B",
"6 c #0E0B0B",
"7 c #0C0B0A",
"8 c #0B0A09",
"9 c #0A0909",
"# c #0A0807",
"@ c #080607",
"gggggggggggggggggggggggggggggggggggggggggggggggggggggggggggggggg",
"TGmSqmoSIrkrtkkrqrtkmpmSTqqrJUIJlssmGKlpHrkKIUmGsmSSTnqGKttkTnsm",
"mSTKpsSTtnkJokkorKsknmlpIlGUrHIsUJKptSqStGkHqnJJrqGmpUSmqomkKUGG",
"Tpccccccccccccccccccccccccccccccccccccccccccccccccccccccccccccnr",
"lpf6666666666666666666666666666666666666666666666666666666666ftt",
"UIf6e@@@e@@@e@@@e@@@e@@@e@@@e@@@e@@@e@@@e@@@e@@@e@@@e@@@e@@@6fqt",
"Kof6@@@@@e@e@@@@@e@e@@@@@e@e@@@@@e@e@@@@@e@e@@@@@e@e@@@@@e@e6fGT",
"Ktf6@@@@@@e@@@@@@@e@@@@@@@e@@@@@@@e@@@@@@@e@@@@@@@e@@@@@@@e@6fUJ",
"qKf6@@@@@e@e@@@@@e@e@@@@@e@e@@@@@e@e@@@@@e@e@@@@@e@e@@@@@e@e6fln",
"Gmf6e@@@e@@@e@@@e@@@e@@@e@@@e@@@e@@@e@@@e@@@e@@@e@@@e@@@e@@@6ftr",
"Iof6@e@e@@@@@e@e@@@@@e#e88888e#e@@@@@e@e@@@@@e@e@@@@@e@e@@@@6flo",
"Srf6@@e@@@@@@@e@@@@@#8e2211112e8#@@@#9e88889#@e@@@@@@@e@@@@@6fHo",
"pKf6@e@e@@@@@e@e@@@#7e1eddddde0e48984e1e1188888e@@@@@e@e@@@@6fHT",
"GKf6e@@@e@@@e@@@e@#4eddOeCAzeEdde221eYdded88888#e@@@e@@@e@@@6fTs",
"Smf6@@@@@e@e@@@@@e4edREzyewewwxCdeZeddAAAe8888849e@e@@@@@e@e6fqs",
"Utf6@@@@@@e@@@@@#5edPCyxwwevuuuvydezxwwwxy88888128e@@@@@@@e@6fSo",
"tsf6@@@@@e@e@@@#7edeCyxxwevejjjjjeveuuvvwe88888d0e9e@@@@@e@e6foo",
"sKf6e@@@e@@@e@@9edREeyxwevujeiiheiiiejuvewxyeAEPe14#e@@@e@@@6fsn",
"STf6@e@e@@@@@e#e1dFAyexevujjiehehhhhiejevwxxyeCeRZ27#e@e@@@@6fsI",
"tUf6@@e@@@@@@@e20RCzyxevvujihhehhhhhhieuvvwxyzeEOW029@e@@@@@6fTJ",
"Tof6@e@e@@@@@e9eZOCyyewevjjiheheaaahhejevvwxyeAeFRZ17e@e@@@@6fnp",
"ISf6e@@@e@@@e@82eOAyexwvejihehaae#aaehijevwxeyACeOW0e#@@e@@@6fpq",
"Jtf6@@@@@e@e@@82YeAeyxwvueiehhaaaeaeahijueweyyzCEeRe29@@@e@e6foq",
"tUf6@@@@@@e@@@82YOeyyxwvujehhhaaa#eaahijuvexyyACEFeZ29@@@@e@6fqp",
"ppf6@@@@@e@e@#81YeAeyxwaaejehhhhaeaehijjveweyyACEeRe29@@@e@e6fTl",
"qHf6e@@@e@@@e#41eFAzeaaaeaaaehhhehhheijuevwxezACeORZe9@@e@@@6fsI",
"trf6@e@e@@@@#e2eRFCzyeae#aaaiehehhhhiejeaaaxyeAeEOW02e@e@@@@6fTG",
"Krf6@@e@@@@@92eWOECzyaea#aaajiehhhiijjeaa#aaazeEFOW04#e@@@@@6ftG",
"KSf6@e@e@@@#7eZeOECAzexeaavujejeiijjjeaea#aaaeCeFPW02e@e@@@@6fHG",
"nTf6e@@@e@#8e0WPeEECeyyxewvveujjejjuevaae#aaeCEEePW0e7#@e@@@6fmm",
"IGf6@@@@@e#e1ZWPOeEeAzyyxewevvvuuevevvwwaeaeACEFOeRe149#@e@e6fqr",
"mrf6@@@@@#e20YRPOFeCCzyyyxewvvvvvvevwwxxyyeACEFFOOeWZ1279#e#6fqn",
"lHf6@@@@#e7eZWRPOeEeCAzyyexewwwwwewexxxyyezeCEFFOeReYZ125e9e6fJI",
"TJf6e@@#e420eWRPeFFCeAzyeyyxexwxexxxeyyyezACeEFFePPReXZ0e4796fSs",
"oSf6#e9e310ZWeReOFEECeAeyRRRReRexyyyyeyeAACCEeFeOOPRReYe02476fqH",
"GGf6#9e410ZYWRePOMEECAeAzaaaaaeayyyyzzeAACCEEEeMOPPRVWeYZ0246fTl",
"Krf6#e4e0ZYXWeReOMEECeAeAAzzzezezzzzAeAeCCCEaeaeOOPPReXeZ0126fHS",
"SGf6e520eZYXeRPPeMEEeCCBeAAAeAAAeACCeCCCeEaae#aaePPPeVXXeZ016fpT",
"IJf67410ZeYeVRPPWeMMMMMCAeAeCCCCCeCeECEEEeaea#aaaePeRVXXYe0e6fop",
"pGf65210ZYeXVRQPMLMMMMMCCCeCCCEEEEeaaaEEEEeaa#aaaMeQRVXXYZe06foU",
"JJf63100ZeXeVQQQMeMMMMMEEeEeEFFFFeae#aaaEeEeaaaLMeQeVVXXZe0e6frI",
"qnf6e10ZeYXVeQQNeLMMMMMEeEFFeMOOeaaaeaaaeEEEeLLLeNQQeVXXeZ006fnr",
"rSf62e0eZXXVVeNeNLMMMMMeMMMOOePeOaaa#eaeMEELLeLeNNQQVeXeZ0016fTq",
"trf611eZYXVVQQeNLLLLLLeMOOPPPPeRRPPaaaeMLLLLDDeLNNQQVVeYZ0016fSp",
"tKf61eZeXXVQQeNeLLLLNeQePPRRReReRRRPPeMeLLLDDeDeLNQQVeXeZ0016fJt",
"oqf6e0ZZeVQQeNNNeNNNeQQQeRVWeWWWeWRPeMMLeDDDeDDLeNQQeXYZe0116fmS",
"sKf610ZXVeQeNNNDNeNeNQQRVeWeWWWWReRePQNLDeDeDDDDNeQeVXYZ0e1e6fnr",
"HGf610ZXVQeNNDDDNNeNQQVVWXeWXWWWWVeQQQNLDDeDDDDDNNeVXXZ001e26fUq",
"rmf60ZXVQeNeDDDDNeQeQVVVXeXeXXXWXeVeQNNDDeDeDDDDNeQeXZZ01e2e6fIH",
"Jnf6eZXVeNNDeDDDeNQQeVXXeYYYeYYXeVVQeNLDeDBDeDDDeQVVeZ00e1226fnI",
"KUf6666666666666666666666666666666666666666666666666666666666fSJ",
"plffffffffffffffffffffffffffffffffffffffffffffffffffffffffffffSt",
"kKHnqpSmpSHStnmSqnsIIGKTsSrrUJoKmUSUGIppmqTHmomJsrJootpTlGnJtKns",
"krmpKrITotUpKslGomKIorlHqmGsqqStoHKnonnGHsnrlqIJGHSrmISslrKmmTHs",
"klJrqmHIpsIptrITqlsKKTToToSIoUJsrHHGllspGsqlIHnKJJqUmqtHtUmsTmKU",
"klSIJKsrqrJlmTHrHnIHUIIomrSImUGsnSrSqroKJUtIsKmsJHmHplIUpTqsqKqp",
"kGGpGTKrrJtnnIlrptoqqrroJIsqptonsrlGppnpnnITtTtmnKtUKlTltrqTKlUp",
"koTomrbqGttSlmsHrGIHbTtKpGlGsTrKrUbTSpmnHmTlllGIbGpSUtnHSsbTTHqr",
"krTlmHl3JGsslttslTslo3IorHrrHJGHHsI3npGImSUsssTot3UTStloIUG3rnon",
"kTqKTUlGmnUqGnpGStrUmpmJIKGmoIsmtnttGHGGtloorJrtoGIUJIHotsmrKIKq",
"kmSGmHnUJoHsKnplqnllTJHJnGKpnnUnGJsmKKqsrKHTrqnGGlGnlTtsKTKHmUms",
"knITnqrpIpmtUGlGKTlsopIrmsKSmUHnUGKoqqHpnqslqJSSlHrmSUnHqrorJptG",
"kTGtolIrqJnttTIITGpIonpnpGlUsolJTGSrKlHlGHKorlmsKsUoUUTtUtIItrsI",
"3333333333333333333333333333333333333333333333333333333333333333"
};
