/* XPM */
static char *horreur_ea[] = {
"64 64 64 1",
"a c #D6CFBA",
"b c #968E82",
"c c #786E64",
"d c #645D56",
"e c #625951",
"f c #4E4A46",
"g c #48433E",
"h c #443C38",
"i c #36302E",
"j c #352F2D",
"k c #5A2A18",
"l c #342E2C",
"m c #332D2B",
"n c #322C2A",
"o c #312B29",
"p c #302A28",
"q c #2F2927",
"r c #2E2826",
"s c #2D2725",
"t c #2C2624",
"u c #2B2523",
"v c #2A2422",
"w c #292321",
"x c #282220",
"y c #27211F",
"z c #26201E",
"A c #1F1D1F",
"B c #1E1B1D",
"C c #1D191C",
"D c #1B181A",
"E c #1A1719",
"F c #181617",
"G c #181518",
"H c #171416",
"I c #161415",
"J c #161315",
"K c #151314",
"L c #151214",
"M c #141213",
"N c #141113",
"O c #131113",
"P c #131112",
"Q c #121012",
"R c #110F11",
"S c #110E10",
"T c #100E0F",
"U c #100D0F",
"V c #100D0D",
"W c #0F0D0E",
"X c #0F0C0E",
"Y c #0E0C0D",
"Z c #0E0B0D",
"0 c #0E0B0B",
"1 c #0D0B0C",
"2 c #1C0406",
"3 c #0C0A0B",
"4 c #0B090A",
"5 c #0B080A",
"6 c #0A0809",
"7 c #0A0709",
"8 c #090709",
"9 c #090708",
"# c #090608",
"@ c #080607",
"hhhhhhhhhhhhhhhhhhhhhhhhhhhhhhhhhhhhhhhhhhhhhhhhhhhhhhhhhhhhhhhh",
"rwtmoyxpwsvrrzuynksrkioylxjmimyjryluylypuikqkqjtlkmlkvnxklxjlrsy",
"rzzruirquzxwwvmxmktlkjlrnuymwnnioxyuniwspqkikmzrskqxkumrkrnipotv",
"lidddddddddddddddddddddddddddddddddddddddddddddddddddddddddddduz",
"pug0000000000000000000000000000000000000000000000000000000000glu",
"iqg0f@@bf@@bf@@bf@@@f@@@f@@@f@@@f@@@f@@@f@@@f@@@fb@@fb@@fb@@0gpz",
"tpg0@@@b@f@b@@@b@f@f@@@@@f@f@@@@@f@f@@@@@f@f@@@@@b@f@b@@@b@f0gvr",
"tqg0@@@b@@fb@@@b@@f@@@@@@@f@@@@@@@f@@@@@@@f@@@@@@bf@@b@@@bf@0gis",
"rlg0@@@@bf@fb@@@bf@f@@@@@f@f@@@@@f@f@@@@@f@f@@@@bf@fb@@@bf@f0gjz",
"usg0f@@@b@@@b@@@b@@@f@@@f@@@f@@@f@@@f@@@f@@@f@@@b@@@b@@@b@@@0gvy",
"lzg0@f@eb@@ebf@eb@@@@f@f@@#99f9f99999f#f@@@@@f@fbe@@be@fbe@@0gvx",
"iwg0@@f@b@@@b@f@b@@@@@f@999766f6666667f99@@@@@f@b@@@b@f@b@@@0gwv",
"pqg0@f@f@b@@@b@f@b@@@f9f96654f4f33444f6f99@@@@@b@@@b@f@b@@@@0gru",
"vxg0f@@@fb@@fb@@fb@@f996f443f111f111f344f6@@@@@bf@@bf@@bf@@@0gis",
"ulg0@@@@eb@feb@@eb@f97643f1fZYYYYfYfZ1133f@@@@@bef@be@@bef@f0gwj",
"jug0@@@@@@ba@@ba@@ba66431ZfXWWUUUUfWWXYZ13@@@ab@@ab@@ab@@@f@0guu",
"ovg0@@@@@f@fa@@@af9fa431YfWfTSSSSfSfTUWXYf@@a@@#af@fa@@@@f@f0guj",
"yyg0f@@@f@@@f@@@f965f3ZYfUSRfRQQfQQRfRSUfYZ3f569f@@@f@@@f@@@0gjj",
"xmg0@f@f@@@@@f@f96641fXfTSRQQfNfNNNOQfRfTUXZ1f6f9@@@@f@f@@@@0gzw",
"pog0@@f@@@@@@@f99643ZXfSRQQNNNfLLLLNNNfQRSaXZ3f699@@@@f@@@@@0gup",
"vwg0@f@f@@@@@f#f6431XfSfaONLLfJfJJJJLfNfaaSUXf3f69#@@f@f@@@@0glq",
"mug0f@@@f@@@f@97f31YfSRQfa6JfHHHfHHHfJ6afQRSfY13f79@f@@@f@@@0gsq",
"rog0@@@@@f@f@@964fZfTRQNLfJfaGGGGfGfaaJLLfQfTWZ34f9f@@@@@f@f0gpv",
"xlg0@@@@@@f@@99631fUSQONLJfGGEEEEEfEGGHJLNfQSUY136f9@@@@@@f@0gjj",
"oug0@@@@@f@f@2643fXfRQNLJfGfEEEDDfEfEGGHJfNfRTXZ3f6f@@@@@f@f0gpj",
"wog0f@@@f@@@f224fYUSfNLJfGGEfDDCfCDDfEGGfJLNfSUYf422f@@@f@@@0gop",
"uig0@f@f@@@@#f2f1YURQfLfHGEEDfCfCCCCDfEfHJLNQfUf1229#f@f@@@@0gms",
"ryg0@@f@@@@@#9f22XTRONfHGEEDCCfBBBBCCDfEGHJNORfX2229#@f@@@@@0gon",
"vjg0@f@f@@@@9f2f2aTROfJfGEEDCfAfAAABCfEfGHJLOfTf22299f@f@@@@0gio",
"nmg0f@@@f@@@f922fa2RfLJHfEDCfBAAfAABfCDEfHJLfR2af229f@@@f@@@0gyy",
"yqg0@@@@@f@f99622f2faLJHGfDfCBAAAfAfCCDEGfJfa22a2f6f9@@@@f@f0gll",
"mog0@@@@@@f@99632cf2a2HGFEfCCBAAAAfBCCDEGHf2a22c21f6699999f90gmi",
"lmg0@@@@@f@f8643Xfafa22aEfDfCBAAAfAfCDEEGf2fa222Xf3f66666f6f0gvu",
"iwg0f@@@f999f43YfTa2f22af2aCfCBBfBBCfDa2fa22fa2TfYZ1f334f4460gln",
"tqg09f9f99664f1fWRQ22f2f22a22f2fa22a2faf2a222fQfWWYY1f1f33340gjo",
"mxg099f9664431fWRQPMKafc22a22af2a22a22f22ca2NNfQRTWXYYfY11330goy",
"xmg09f6f64331fWfRPMKJf2fa2c22f2fa22a2fcf22aKNfOfRRRTTfWfYY130gst",
"uyg0f664f311fWRRfOMKfHHGf22afca2fa2cf22afJJLfNOOfQRRfRTTfY110gmn",
"pog066443fYfTRRPPfOOOOOGGfFf22a22f2fa2HHHfKfLLLMPfPfQQRTWfYf0gno",
"pug064331YfTRQPPKKOOOOOHGGfGGGGGGGfHHHHHJJfJJJKKKMfMPPQRTWf10gtz",
"xmg0431YWfRfPMMKKfOOOOOHHfHfHHHHHfHfJJJJJfJfJIIIKfKfMPQRTfYf0gpw",
"xpg0f1YWfRQMfKIHfHOOOOOIfIIJfJJJfJJJfJJJfIIHfHHHfHIIfMPQfWY10gzw",
"wjg01fWfRPMKIfFfFFOOOOOfKKKLLfNfLMLLLfJfIHHGFfFfFFHHIfPfRWY10grn",
"sng0YWfQPKIHFEfEEEEFFHfKMMNQQPfQQNONMKfIHHFEEEfEEEFHIKfQTWY10guq",
"pvg0WfQfKIFEEfDfDEEEHfKfOPQRRfRfQQQPMfIfGFEDEfDfDEEFIfPfTWY10gzp",
"tmg0fQPKfFEDfCCCfDEEfIKMfQSTfTTSfRQOfKIHfEEDfCCCfDEFfKPQfWY10gsi",
"ipg0QPKHEfCfBBBBBfDfFIMPQfTfXWWWTfRfKKHEDfCfBBBBCfEfHKPRTf1f0gmr",
"tig0PKHEDCfBAAAABBfEFIMQRTfYZYWWTRfMKHFECBfAAAABBCfFHKPRTYf10gjr",
"tjg0KHEDBfAfAAAABfDfFIMQTfXfYYYWTfPfIFECBfAfAAAABfEfIMQRWf1f0gvp",
"spg0fEDBfAAAfAAAfBDEfKPRfY11f1YWfQMIfECBfAAAfAAAfCEFfMQTfY110gol",
"ywg0000000000000000000000000000000000000000000000000000000000grm",
"isggggggggggggggggggggggggggggggggggggggggggggggggggggggggggggzj",
"qjsxqzuuorwmmszolmlmjmztvxvmyilpptozwtjwwpsvrosiovvsmunviwotmxsy",
"uxnvntvnltzommiupozqrrzxixyvzitplytxsxsnzosqqzuoqvrmmtsnxqspqjwi",
"potulswjsxxojwryozljnmzlwlirjztjuvviqpnxuuqumoiqzxzyxwzwztvulwiu",
"qqpszrxovrtrotqjoljziuuzyqxsvmrzxmywiltjlnolxxnoljypqsminuouswum",
"njtwlxqrlxtyxxoousooxrumonroqmwjysnlxzlqmpmynstijonqjoprllutqtyo",
"potjsqdxizvowsjmlqowdqljpxutstwyqldnuvtsyvuuxttidnmnxorvswdipzmm",
"tuxlrnySspjomnnttizoiSnztqjnnjolojpSotqoryqqliyprSproyyyryiSptpi",
"uuloyumlpjtisyqvilvowisznottorwriiyxlornlwwjxxznootzilnnsjlurqnu",
"zrxqnqsnmmrlxwsysoyzwvorrolxmusjupvxuupipnoqrujuitjspxxjjxxwlmio",
"jomijopovolmwmusjssrponpyixnynrtjzrxzjxoowmoxvojjwovponnusmnvwii",
"ljstirpwmnsonzpyysxruuqpmyywovnnxvsjlmlqlyxojmwwprnllwrxruulzysi",
"VVVVVVVVVVVVVVVVVVVVVVVVVVVVVVVVVVVVVVVVVVVVVVVVVVVVVVVVVVVVVVVV"
};
