/* XPM */
static char *horreur_plafond[] = {
"64 64 18 1",
"a c #242222",
"b c #232121",
"c c #222020",
"d c #211F1F",
"e c #201E1E",
"f c #1F1D1D",
"g c #1E1C1C",
"h c #1D1B1B",
"i c #1C1A1A",
"j c #1B1919",
"k c #1A1818",
"l c #191717",
"m c #181616",
"n c #171515",
"o c #161414",
"p c #151313",
"q c #141212",
"r c #131111",
"omlknmliogeijfkkcndoonnmpeoghhfklklgohkgomicfhgcfdiceoldhekkckfh",
"jkloncjolgcccgnhgjlmmdegjgieqpigjjifilndilhglfmkhdmknfndhlddoddi",
"elkknijcldnecehnfeifodpnhdnqqmmfeifmkloonkdonkfnnillflekfhdedfgk",
"cmodloidkcdggnfhhldgkmkhnifionjehgomoiggkhdehfllnfhdcjkckcjeifji",
"fomolhninbkklfkkgmcnfkefmiopdjfjpllddcmgdgiioofencdknifjlcgkiffj",
"kljhloofejnicdlgfelkmgolpfmgdehmmjknmnoiognoefchjejdkejllcojofji",
"fhnlneifkhdmfdffhmfidkmddgnlnefggogijnlecbennkneifdjimfmilhenjkh",
"omdeijjkigjmifhncedkikicimfljpgnfgjggkmjgbbnfmfmohfdgmohdmgpmhhg",
"gngmimmijckcnlimlbejdlkigjfnjfeoeiklgogiiidldeecemcckihdgekoifdm",
"dlkcjneigghelbfmgkdkjnfggkmneikmdhkomnlnbcdcifdkjghendojdigilgem",
"hedoejogjcdkiebbbjegkdjllfcjhehnkjmhcnhgkfklbldjofeogmlhjdmnqjio",
"jlkdlndjhdhnnjgfimgioekfejohkclddndlllggjcjendngeglmnmmjlmehlqjd",
"igjokckmnnijidmdjlhcknnflmcnnfnmhieclnbjhihmhlnefhkcoonjlqkifolj",
"pjnlflohcckkdccbkiinmnjimihkkihongbnflbjlemhajbjhoflndeemgkrhggo",
"pdmdikghicgjclllmbmfgfinkimhngoidjjggibdjfiijilfokelkejjnoqjkgol",
"nhemjmfdimflcmllbcdfmdgodcgjfgjcdhifdmckcjbjmhcbofelmhllqeerjgin",
"hpldmlfkfflnklidmnbehlmmgmmkegnoidkbgdcafmgjfgfdoneghghpheknfeji",
"kkmgkecdcnllmgmccmkhkjnlkjgdjgcdgilmifcehflcbmhcdicnelkilopekmfp",
"fihjicfodoknhnclijecjilonfhclgfgonldammkmaafcmfdjngeoffglmhoojnf",
"onkiljkdlcmgeemojhgjoficgejdiohojmcehflabjdacmlkfikkedijgjeqpfdj",
"nkljhdigmeknmkhehjkdjeinohecomjmilfmjcdembkiiagljoghhnhonhhnpnfe",
"ngdpjjcfjjjfcconilcomfjiejgdndjedfljkkhkecmlieiekfoeeldojleeipfp",
"mghomhmlgcomhfijenfnlgnkkndmfjnfnilibffifadfgdbcfelnkinmcnfilpee",
"jedijifjddgcgiknnhnngoghgmfoekfhcilikndcgeacbgkfffgdkliekmlojomm",
"jkpielehgkmimllgconiolinllhiegfjjnfnnddjgehclbnedceejngghkcgdomk",
"mdddifojeoelgfeiokkdjikcejhdffnjnndnhmkkbglljnfflgcjeecngcelicdk",
"mmkghoddhhneoekdiljnflheehlenfhlkglmelijhejcjndigonkgjdemmkeglnc",
"khkhhnjhfifeikcggklhjhfkhlignkohodklmnenejcmjdionhhokfldggnfmieo",
"cndckmcgfehngnodcoijdhkjioflmjldinfeejfglclegbomijkecdlmnhlmcgjk",
"ihmdcogdkonjmholnohjmodfglmglceljjogkjogijdmedlckjeddhnemfdclifm",
"ggjhecoeomfkcekkghmneedidgjdmkldhddklfdeldkcfldeehifhjkicdoglgng",
"icdjikegjojefoilodcifhfgehhiclcfgeeimcdoniogmgcgiofhkcgofejemoif",
"fmhnfhjlnmcfhdmlgfcnomlimocdnikelnmfcmdjhndggkldmholofnclgohnemh",
"iclldneliklmenflocdhjnloejleccccledieliegclcmlnlkkkjceijmimhiomg",
"iinejfjklklncihgnoodlffmfcilmdioeggeoeicmgigilighcjkhlkffccohdno",
"ddooifknggikdjgknjhjlhgfoeodfgijhijkcbfhcohdnjflndgmiiijifgcjngl",
"coiiolgojckjlnhkjdcifmgdnhjkfofohehmfbienlffgfkdnjofhlpefjefknjf",
"gkgcfookkleghnejfcgegdccejkiekdgmljiiifbjfmcoiehgjopinfmdikhdcke",
"ciiledjjhnnkljoojoghidenfdefcmjkjeibfigglgegmchpfnjhkljfffelomlc",
"olodffkhdeiclcnickjdmmjelmjhcknkjemldneghfcfldmpdnhfimfmgoljchkj",
"kiclnchjcfnfmnillhlkgfcomkfdkjhemgmgkkhgbjgheoenenmigheeeflgjeke",
"hmifldnflfkeonfdmoelkejllhljkmlecefmgkmdbfijiojeghjgifpnhgojkifl",
"fennnjnfcljjfghkljkofgkgkbdbllldbgimmliilhmkhelipgkpmojkhmenmejg",
"mmeldnkodinhelodheinfinidnlcelegljlklglkdgkcnoigomjlikmolqghghcc",
"jekfdeffdcfllndgmeenlkhjlikfclemljabclmknoiiknnoilinllrpqljmoheo",
"cgidgikenfkdmeijejkkodonhmncjdfflabdkbehcljnhcmlgfnjofllpqgdfefd",
"enndoeiimiofoeiffledhhnldjfllaahchgkidgkdemkheegkpijflojillfnmim",
"iodiljddocllgjocgdeglfmcgcebifdfgmckicnejmeelkfighkmrhrjjnimnohi",
"jgfnlodcfennjillnfoggmgecglclkcdkmcdmnihkgnjjoeffpnfqnkqqgkndknh",
"odoolgheefmcnjkpllkelllenneccgdfcachmnijdlikkpkjpkrqifogoqkgmeeg",
"hcgdohilojgfjhinfgmljhjchmgldknnhlhlglbgfjigeoffphhqigmfjolgojce",
"ilkicdngkfhdofndogiegmkodohkcibmljimddnoeklnipfneqhqmfjqmhfpkjnn",
"omcecdmmimeigpinppejpjgnnonmejdfgddkmdojdkhkhenfeemfknemlnempggk",
"hffldcooidnpinjijimopejdohgmhcehhnilleeclgjepkegifgnilgmldijnfmn",
"kecllhnlimglpgjggodpndmiklejeocejgehgmkinhndgdogpkkoffpkpefdoggn",
"gogmccklcndkpfgjpljfpejkdpdkeljkllhgfcocnglfhdfdggihlpjnmdkckfkk",
"ocmeemjcdlliofmkdneolgjidiopjlecdceeonhokmikhhmmhngjhfmlpmcldggg",
"ejjocmjnjgkekhenidmjhpfmmmjlnmjddokiegijmlmgmdlnfjpokglplgofcgli",
"godnmcnmdmhjiomgjmghflhmqmhedpdidpcemgdjjnojehnnemhdgljeejoghnlc",
"iligekfdmkgmjgmkjiflmkoiihqegpmfnpjghlhmipefgnonedihpfhemgmkcihe",
"gnlknjfmjkmhjhddheklhqoqiihqkffgmnkoekpcmgmmdigjieiknngjdkhenfkk",
"okjffmgmgnhffhcjmidpnmjmkghjfnplomklmolhnifejllkddkeoflgngjcoiom",
"nfjicfjimkidodgddojjhdhijeppljmgieiignkejnjiggnciknhlenndcenonin",
"ihijkhlmklnnfimlolelomnjpelmqkfehpfkfjmjjnligienjgckdmlckdhmkhlh"
};
