/* XPM */
static char *horreur_we[] = {
"64 64 63 1",
"a c #836C68",
"b c #645D56",
"c c #6C5B5D",
"d c #6A585C",
"e c #655459",
"f c #625256",
"g c #604F54",
"h c #5C4C50",
"i c #594A4E",
"j c #4E4A46",
"k c #56474B",
"l c #524448",
"m c #48433E",
"n c #4B3F42",
"o c #443C38",
"p c #403538",
"q c #393033",
"r c #36302E",
"s c #352F2D",
"t c #372E31",
"u c #342E2C",
"v c #332D2B",
"w c #322C2A",
"x c #312B29",
"y c #5A2A18",
"z c #302A28",
"A c #2F2927",
"B c #2E2826",
"C c #2D2725",
"D c #2C2624",
"E c #2B2523",
"F c #2A2422",
"G c #292321",
"H c #2B221F",
"I c #27211F",
"J c #26201E",
"K c #1F1D1E",
"L c #1B191A",
"M c #181617",
"N c #171516",
"O c #161415",
"P c #141213",
"Q c #131112",
"R c #121011",
"S c #110F10",
"T c #120E0E",
"U c #100E0F",
"V c #100D0D",
"W c #0F0D0E",
"X c #0F0C0D",
"Y c #0E0C0D",
"Z c #0E0B0C",
"0 c #0E0B0B",
"1 c #0D0B0C",
"2 c #0D0A0C",
"3 c #0C0A0B",
"4 c #0C090A",
"5 c #0B090A",
"6 c #0B0809",
"7 c #0A0809",
"8 c #0A0709",
"9 c #090708",
"# c #080607",
"oooooooooooooooooooooooooooooooooooooooooooooooooooooooooooooooo",
"xJICuyvwCuIsBJzIsJCvFErJBzrGyxBGFAyDusuFIuFvDuAGvGwBBJzDyywBvJrr",
"xAGJuyJuJJrvxAJCCIEwzGBAJJzuyuAwzByxvIJrJuABuuEsrrxFuJADyyDADrBB",
"GIbbbbbbbbbbbbbbbbbbbbbbbbbbbbbbbbbbbbbbbbbbbbbbbbbbbbbbbbbbbbGI",
"GAm0000000000000000000000000000000000000000000000000000000000mIs",
"zum0j###j###j###j###j8##jihgjgggjgggjghij###j###j###j###j###0mxE",
"zDm0#####j#j#####j#j5k48ijgjggfffjfjggggij8j#####j#j#####j#j0mEz",
"rBm0######j#######j8kai2hgjfffffffjfffggh2ja8#####j#######j#0mAJ",
"Fxm0#####j#j####8j#j4ihhgjfjeeeeejejefffgjhj8####j#j#####j#j0mCD",
"Awm0j###j###j##5j48#jhhgjfeejeeejeeejeefjghhj##8j###j###j###0mFC",
"JCm0#j#j#####j8jakk44j3jfeeeejdjddddejejfh3i4j4ja8###j#j####0mGB",
"sIm0##j####9##j4kkhii2j4feedddjdddddddjeg4#4iijkk8####j#####0mBI",
"xwm0#j#j##9n5j8jk3ihgj4jgedddjcjcccddjdj4#44444jk8###j#j####0mDv",
"JCm0j###j#9ajll3j484jgggjeddjcccjcccjddfj4444448j488ja9#j###0msC",
"Dsm0##9##j9j54lkkj4jh2gfejdjcccccjcjccdXfj4444483jljln9##j#j0mJJ",
"DEm0#9p699jn9#4k3kjhg453fdjcccccccjcccdeef44444kkij45n5###j#0mGr",
"xsm0#9aonjnj984k8j8jggg32jdjcccccjcjccce3j44444i3j4j#5n59jaj0mJB",
"Evm0j9o6j5nnjllkj884j2gfjdXcjcycjcycjcdZj3ggj488jk48j5nnjoo90mBs",
"vCm0#joj#9n58j4jkihhgj5jZedccjajayaycjXjefg2hj8j4kllljnj96o60msx",
"uIm09pj##9n9##jl484hggjfeZZccyjcccyyccje25582hjikk3895j9##6p0mwI",
"EGm09j9j#9n9#jlj##8h4j8jfeddyjyjccyayjZjfffggj4j84l8#jnj##9p0mBu",
"BFm0jp9#j5n9j8l8j#8hj###j773jyccjccyjddej388jh8#j8l8j9n5j#9p0mJF",
"Bvm09p9#9j5j#8l8#j8j8####j#j4dcccjcjd3777j#j8h8##jlj##5n9j9j0msv",
"wsm06p9#9nj##8l8##jh8#####j##4dcccj37#####j#8h8##8j8##9n9#jp0mCw",
"IGm0p6##9j9j#8l8#j8j8####j#j##777j7j#####j#j8i8##jlj##9n9j#j0mzs",
"Jum0j9##jn9#j9l8j#8ij###j###j###j###j###j###ji8#j8l9j#9nj##90mJJ",
"Iwm0pj#j9n9##jnj##4k8j#j#####j#j#####j#j####8j4j#8n5#j9j9##90msu",
"xxm0p9j#6o9#9nj##8k4##j#######j#######j######4j8##5n9#jo6##90mJw",
"FJm0pj#jo6##9j9j#8k8#j#j#####j#j#####j#j#####jkj##9n9j#jo9#90mzJ",
"rrm0j9#9j9##jn9#j8l8j###j###j###j###j###j###j8l8j#9nj##9j9#90msG",
"ICm07##9oj#j9n9##jlj#####j#j#####j#j#####j#j#8l8#j9j9##9oj#j0mBs",
"xzm09##9p9j#9n9#99j9999999j99#####j#######j###8#99jn7997o7j90mAu",
"sGm09##9pj#j3n797j7j77777j7j99999j#j#####j9j99977j5j1775pj7j0mID",
"AGm0j##6j797j175j553j333j555j779j99#j##9j997j755j53Xj133jZ570mFD",
"wIm07j7j4975oj3j31111j1j13355j7j99999j9j97775j3j311Ynj1jXp150muu",
"GGm099jp5753o1j1YYYYYYjYY11335j7799999j7775531jYYYYWoWjYYp130mIE",
"ICm09j5j5531ojYjWUUUUjWjWY113j5j79999j7j55311jWjWUUSojWjWpY30muI",
"IGm0j75qj311jWUUjSSSjSUUjWY1j357j799j775j31YjWUSjSSSjSUUjpY10mFu",
"Gxm0773q1jYjUSSRRjSSSSSSUjYj33577j7j75531jYjUSRRRjQjRRSUUjWj0mvA",
"Czm075YqYYjUSRQQPPSSSSSSSUjY135577j75531YWjSRQQPPPjPQQRSSqj10mJw",
"rIm051qUWjSjQPPPPjSSSSSRSjWj13557j7j531YWjSjQPPPPjPjPQRSUjqj0muu",
"Bsm0jYqUjSRPjPONjNSSSSSRjUWYj355j553j1YWjRQPjOONjNOOjPQRjUqY0mGB",
"CBm01jtjSQPPOjMjMMSSSSSjSUWY1j5j55331jUjRPPONjMjMMNNOjQjSUtY0mCr",
"rxm0YWjRQPONMMjLLMMMNOjQSUW133j55331YUjQPPNMMMjLMMMNOPjRUWW10mwr",
"CEm0WjRjPOMMLjLjLLLMNjPjSUY13j5j331YUjQjONMLLjLjLLMMOjQjUWY10muJ",
"sJm0jRQPjMLLjLLLjLLMjOPQjUY1j333j1YUjQPOjMLLjLLLjLLMjPQRjWY10msx",
"Dsm0RQPNMjLjKKKKKjLjMOPRSjYj33331jWjQPOMLjLjKKKKLjLjNPQSUj1j0mJC",
"xDm0QPNMLLjKKKKKKKjLMOPRUWj13311YWjQPOMLLKjKKKKKKLjMNPQSUYj10mzE",
"uwm0PNMLKjKjKKKKKjLjMOPRUjYj111YWjRjOMLLKjKjKKKKKjLjOPRSWj1j0muC",
"GFm0jMLKjKKJjJKKjKLMjPQSjY11j1YWjRPOjLLKjKJJjJKKjLLMjPRUjY110mzJ",
"sDm0000000000000000000000000000000000000000000000000000000000msv",
"xwmmmmmmmmmmmmmmmmmmmmmmmmmmmmmmmmmmmmmmmmmmmmmmmmmmmmmmmmmmmmJv",
"rIxIBEvvvIrsBBFJACIBEwJwCGEssvJyJxGuDCCCyCzxFrwJGrDDDsADGArGvBEF",
"rAvrGxzvrFEIIsFzCssGAxvCGGwFFDzywAsIJCAJyABAJwIzvGvDwEzxwDGDuJFs",
"zEAzxArsDzFGGzIDGExGvuEBwJDuBwvyurIwJBDsyGGuuwswCuCBxBvzFrrBwurI",
"xuvuvsxCErABxGGxFEAvsGsJJuADrCwyBIzGzJAEyADCFGwJuusGzwExsFJBGAuG",
"sDwrGIGFBsxGFzErrEsrvEIGIBGzIJEyzExrxGzFHvCuDsEACACBCrwsCJxsrJGx",
"DBwBGwbzrxrIFxrxwDAGbxFEGJCGvsIyxAbrsIGGHxusvABDbrJuBEFIFwbIJCzs",
"wCGGwDDTGsEGxDJxIsGDrTxrvwGvDxuywAATDzAuHGGxJwwExTuzvJvvCrvTJwGG",
"wDxGGxFBwrBIGxGwvCruDxwFIvzEJGGyEDvsGGGGvEuCzIvJGsCrAuAGCxFGFssC",
"wBJAzGDsvBArrGrAszzBBAAzIAIvzEwHGGzJwwDGzrGEGIJGAzFvuDADIsGACxxI",
"AvGBFEGxzEGzrBFFGrJEFuGECrzsBGrHFwvDJwBCCBGAGwwGsEECIzvBBwvDIIvF",
"sBICvBuwxwEsrxsIGCFzGIvDzFGIBwzHzFxFzGJzwGzFuwIFuACusJGFAEvJFwzA",
"VVVVVVVVVVVVVVVVVVVVVVVVVVVVVVVVVVVVVVVVVVVVVVVVVVVVVVVVVVVVVVVV"
};
