/* XPM */
static char *horreur_no[] = {
"64 64 64 1",
"a c #CDCDC3",
"b c #645D56",
"c c #695C52",
"d c #4E4A46",
"e c #48433E",
"f c #443C38",
"g c #353338",
"h c #36302E",
"i c #352F2D",
"j c #342E2C",
"k c #312F33",
"l c #332D2B",
"m c #2F2D32",
"n c #5A2A18",
"o c #422014",
"p c #322C2A",
"q c #312B29",
"r c #302A28",
"s c #2F2927",
"t c #2D2B2F",
"u c #2E2826",
"v c #2D2725",
"w c #2C2624",
"x c #29272C",
"y c #2B2523",
"z c #272529",
"A c #2A2422",
"B c #262428",
"C c #292321",
"D c #282220",
"E c #242226",
"F c #27211F",
"G c #26201E",
"H c #222023",
"I c #211F21",
"J c #201E20",
"K c #1F1D1F",
"L c #1E1C1E",
"M c #1D1B1D",
"N c #1C1A1C",
"O c #1B191B",
"P c #1A181A",
"Q c #191718",
"R c #181617",
"S c #171516",
"T c #161415",
"U c #151314",
"V c #141213",
"W c #131112",
"X c #121011",
"Y c #110F11",
"Z c #110F10",
"0 c #120E0E",
"1 c #100E0F",
"2 c #100D0D",
"3 c #0F0D0E",
"4 c #0E0C0D",
"5 c #0E0B0B",
"6 c #0D0B0C",
"7 c #0C0A0B",
"8 c #0B090A",
"9 c #0A0809",
"# c #090708",
"@ c #080607",
"ffffffffffffffffffffffffffffffffffffffffffffffffffffffffffffffff",
"GnyiGiDhvnCyyqrqsvCyDylqyFhvlyGqihpvvyDnliFsFusFlvypDrAAiFuAhiGw",
"qnqliisAunGpAGurvlupAAACpCyGjADCsAsrpivnyypwFhFGpjDpyvurFvpAsshi",
"Cnbbbbbbbbbbbbbbbbbbbbbbbbbbbbbbbbbbbbbbbbbbbbbbbbbbbbbbbbbbbbyr",
"wne5555555555555555555555555555555555555555555555555555555555eqy",
"Ane5d@@@d@@@d@@@d@@@d@@@d@@@d@@@d@@@d@@@d@@@d@@@d@@@d@@@d@@@5eqy",
"Gne5@@@@@d@d@@@@@d@d@@@@@d@d@@@@@d@d@@@@@d@d@@@@@d@d@@@@@d@d5eii",
"une5@@@@@@d@@@@@@@d@@@@@@@d@@@@@@@d@@@@@@@d@@@@@@@d@@@@@@@d@5eAs",
"Fne5@@@@@d@d@@@@@d@d@@@@@d@d@@@@@d@d@@@@@d@d@@@@@d@d@@@@@d@d5elh",
"Goe5d@@@d@@@d@@@d@@@d@@@d@@@d@@@d@@@d@@@d@@@d@@@d@@@d@@@d@@@5eww",
"yoe5@d@d@@@@@d@d@@@@@d@d@@@@@d@d@@@@@d@d@@@@@d@d@@@@@d@d@@@@5ejs",
"loe5@@d@@@@@@@d@@@@@@@d@@@@@@@d@@@@@@@d@@@@@@@d@@@@@@@d@@@@@5eFp",
"iDe5@d@d@@@@@d@d@@@@@d@d@@@@@d#d34#@@d@d@@@@@@@d@@@@@d@d@@@@5elu",
"vhe5d@@@d@@@d@@@d@@@d@@@d@@@d#WtdtW#d@@@d@@@@@@@d@@@d@@@d@@@5eAy",
"pje5@@@@@d@d@@@@@d@d@@@@@d@d#Wtggdtd#@@@@d@@@@@@@d@d@@@@@d@d5eCi",
"ire5@@@@@@d@@@@@@@d@@@@@@@d#WxggggdxW#@@@@@@@@@@@@d@@@@@@@d@5euF",
"ure5@@@@@d@d@@@@@d@d@@@@@d@dxggggdgdx4@@@d@@@@@@@d@d@@@@@d@d5eqp",
"qwe5d@@@d@@@d@@@d@@@d@@@d@@4dgggdgggd4@@d@@@d@@@d@@@d@@@d@@@5eiD",
"pye5@d@d@@@@@d@d@@@@@d@d@@@4tdadggagtd@d@@@@@d@d@@@@@d@d@@@@5epD",
"uje5@@d@@@@@@@d@@@@@@@d@@@@4xkdggggkx4d@@@@@@@d@@@@@@@d@@@@@5eqv",
"hie5@d@d@@@@@d@d@@@@@d@d@@@6BdkdkkkmBd@d@@@@@d@d@@@@@d@d@@@@5euw",
"Ave5d@@@d@@@d@@@d@@@d@@@d@#4dtmkdkmtd4#@d@@@d@@@d@@@d@@@d@@@5epv",
"DDe5@@@@@d@d@@@@@d@d@@@@@d7dxmmmmdmdxE7@@d@d@@@@@d@d@@@@@d@d5ess",
"hie5@@@@@@d@@@@@@@d@@@@@@@dzttmmmmdttz4@@@d@@@@@@@d@@@@@@@d@5eCv",
"Fye5@@@@@d@d@@@@@d@d@@@@@d6dtttttdtdtzY#@d@d@@@@@d@d@@@@@d@d5ehj",
"rCe5d@@@d@@@d@@@d@@@d@@@d@6BdtttdtttdxH7d@@@d@@@d@@@d@@@d@@@5eqC",
"qqe5@d@d@@@@@d@d@@@@@d@d@@6ExdxdxxxxxdEd@@@@@d@d@@@@@d@d@@@@5elh",
"Gve5@@d@@@@@@@d@@@@@@@d@@#1Exxdxxxxxxzd6@@@@@@d@@@@@@@d@@@@@5esl",
"ipe5@d@d@@@@@d@d@@@@@d@d@7KBzdzdzzzzzdHd#@@@@d@d@@@@@d@d@@@@5eAj",
"lve5d@@@d@@@d@@@d@@@d@@@d7HBdzzzdzzzdBELd@@@d@@@d@@@d@@@d@@@5eqq",
"uye5@@@@@d@d@@@@@d@d@@@@@dIdBBBBBdBdBEEJ7d@d@@@@@d@d@@@@@d@d5eDy",
"uDe5@@@@@@d@@@@@##d######6dEEEEEEEdEEEEK7@d@@@@@##d#######d#5ehw",
"she5@@@@@d@d####9d9d99999dJdEEEEEdEdEEHK7d#d###99d9d99999d9d5evr",
"DFe5d@@@d###d998d887d777dYJHdEEEdEHHdHHLd##9d988d877d778d8895esi",
"Dhe5#d#d##998d7d76666d6d1MHHHdHdHHHHHdId69998d7d76666d6d77785elh",
"uue5##d#998877d6444444d4ZLHHHHdIIIIIIJdM398876d4444444d466775epA",
"swe5#d9d98776d4d31111d3dXKIIIdIdJJJJKdWdP6766d3d31111d3d44675eGq",
"pje5d998d766d311dZZZdZ11dLJJdJJKdKLLdN1Nd364d31ZdZZZdZ11d4665eFF",
"hqe599887d4d1ZZXXdZZZZZZVdLdKKLLLdLdMOZONd4d1ZXXXdWdXXZ13d4d5ely",
"rie5987764d1ZXWWVVZZZZZWNLdMLLLLMMdMMPYONZdZXWWVVVdVWWXZ13d65eFp",
"uje587643dZdWVVUUdZZZZZVMdVdMMNNNdNdNPXONdZdWVUUUdUdVWXZ1d4d5eAr",
"GGe5d643dZXVdUTSdSZZZZZVdNWOdNOOdOONdPXPdUWVdTTSdSTTdVWXd3465eju",
"vhe56d3dZWVUTdRdRRZZZZZdOOWPOdPdPPOOOdXdNNTTSdRdRRSSTdWdZ3465eFs",
"hpe543dXWUTSRQdPPQQRSTdTOQWRPPdPPPPPOPdUMMRRQQdPQQRSTUdX13465ews",
"jGe53dXdUTRQPdOdOPPQSdUdPW1SQdRdQQPPOdUdLLQPPdOdOPQRTdWd13465elC",
"ppe5dXWUdRPOdNNNdOPQdTUPdY1TdRRRdRQPdOUSdKOOdNNNdOPRdUWXd3465eFp",
"Aqe5XWUSQdNdMLLLMdOdRTUQRd3dTSSSSdQdNOSQJdMdLLLMNdPdSUWZ1d6d5erw",
"CDe5WUSQONdLKKKKLMdPRTURT1dVUUTTSRdONNQOIIdKKKKLMNdRSUWZ14d65ewC",
"Cue5USQOMdKdIIJJLdOdRTUSTd3dUUUTSdQdNMOMIdIdIIJKLdPdTVXZ3d6d5eAy",
"Due5dQOMdJIIdIIJdMOQdUVTd34WdVUTdQPNdLMLdHEIdIIJdNPRdVX1d4665eGh",
"rre5555555555555555555555555555555555555555555555555555555555eip",
"ryeeeeeeeeeeeeeeeeeeeeeeeeeeeeeeeeeeeeeeeeeeeeeeeeeeeeeeeeeeeeiA",
"DpAjiCyvArllrArusyAqCvnlnyGGjlAqiquiihyjvFuwhDGjGilnyCslrqsjjCnh",
"pljpplrGqAhqujhjCjsusGnAnujrvvuGGFrGDArCFjihlCqvqFhnhlivqhvuwsnw",
"jAChwGFquFwwFCqFpAjqwFnGnvwupiDDrDpqFrAqhuFGusDFqsinhiluqFirrDnv",
"jhjCCuuuiusuFqDshurppqnlnypCuGCsuDsGhiqiAjhwhyulhqunlAuAppuvlCnF",
"uusvyFuDvFpsjjCpwGhvqwoCnyGsurvjswqqAAAFCvCyjsiFGCynylqAGFDpGynG",
"psGpuucjAAupsDrswlDDcsovnpjGyCCFjAcqhlDlGlhslwrpcvlnhpppvqcrlFnl",
"vwhGiir0wACvuhjDhuDsC0olnuFjrGhipGr0GyiDuiiilAlwi0invwhqFvw0uwnp",
"uqAvvFAjilyrGjyuwvvCCyGqnuDqujrDluGpGivqDhruiDrhqpsoArqGpwiqFpnp",
"ujGvDGlluqCAlhrpirFFiDGvnCrpwFqjDFrlAlGvhGGFsrDCyylouCrlvqGuiFnu",
"DqvyCGvwqjrjFpvClqvDrquAnFDADqwlhGAiCuyijiwwAAqphwsoyDwlpplGACnj",
"rvApvFrGwAwsqwAqsiyhuGuynrAqsDjDisChqsGqqssFiyqipiGvluGGCvivGwnu",
"2222222222222222222222222222222222222222222222222222222222222222"
};
