/* XPM */
static char *horreur_sol[] = {
"64 64 64 1",
"a c #403C38",
"b c #403C37",
"c c #3E3A36",
"d c #3C3834",
"e c #3B3733",
"f c #3A3632",
"g c #393632",
"h c #393531",
"i c #383531",
"j c #383430",
"k c #38342F",
"l c #373430",
"m c #37332F",
"n c #37332E",
"o c #363330",
"p c #36332F",
"q c #36322E",
"r c #36322D",
"s c #35322E",
"t c #35312D",
"u c #35312C",
"v c #34312E",
"w c #34302C",
"x c #34302B",
"y c #33302D",
"z c #33302C",
"A c #332F2B",
"B c #332F2A",
"C c #322F2B",
"D c #322E2A",
"E c #322E29",
"F c #312E2B",
"G c #312E2A",
"H c #312D29",
"I c #312D28",
"J c #302D2A",
"K c #302D29",
"L c #302C28",
"M c #302C27",
"N c #2F2C29",
"O c #2F2C28",
"P c #2F2B27",
"Q c #2E2B28",
"R c #2E2B27",
"S c #2E2A25",
"T c #2D2A27",
"U c #2D2A26",
"V c #2D2925",
"W c #2D2924",
"X c #2C2926",
"Y c #2C2925",
"Z c #2C2823",
"0 c #2B2825",
"1 c #2B2824",
"2 c #2B2722",
"3 c #2A2724",
"4 c #2A2723",
"5 c #2A2621",
"6 c #292623",
"7 c #292622",
"8 c #282521",
"9 c #272421",
"# c #25221F",
"@ c #1A1816",
"@b@@@@@@@@@@@@@@@@@@@@@@@@@@@@@@@b@@@@@@@@@@@@@@@@@@@@@@@@@@@@@@",
"bbbbbbbbbbbbbbbbbbbbbbbbbbbbbbbb@bbbbbbbbbbbbbbbbbbbbbbbbbbbbbbb",
"@bqAHHfdewcceqfeHfHAPHqAqZLVqwqL@bYCKC#s4CzzUszsYKOspKslvlpU1zii",
"@bqALVwhecefPHtPthfwwfwwLf2tZLHA@bO8C7Y1RlpGsG19zs9KK18OR9GilK8z",
"@bPPtDdPcHwejtwtcAeDLwdffLADDPPS@b84CCGCl81COGpG81ClKzv87OGpR8zp",
"@bZHeVqqdjccmchwPwAmtdjhdVmqwqwA@bp4GOzvsGvROGC9CCvGv8KzOOl7GRG8",
"@bwAtPmjqDbfqmhqewdmtDjdAmhZVVDq@bRzsGR1psz7CpRG8RplK8vK91sRlOl8",
"@bSfDmwALAeqeeddbjjPDddVDZZSPVww@b4GGR8svK718CpURYp8CKs41RpRYYKR",
"@bfffLmDcmhbqjhbhHfdefVDAdwAtfZS@bUGlRRsROG8ii8CpzRGpR1vvz741spK",
"@bSjPSAtqddafDcdtddeqhcefHVdqVqh@bz78K4KOKY8CUpRiO78v111sYKv4Ri4",
"@bPDejdqjLaebaadcdhmmdDcjPAHjAhH@biOp8lKGGllRCR1GiiCUl1199ppOz7v",
"@bmmSDLmdqdmAameqDcwtqdwhdPVdZDP@bKv1iGvCg78RiC88zvs1v7YlsGvRviO",
"@bDSwStLAjLAmcwLaddbHDjdjdAjqfwP@bz1GzOUUlUipOiGiR8z74GzOYU17G1s",
"@bjADPwqDbddDtjddetdDHewPdAtAZeS@bzOUKggg1llKYOUY1UKO8RC7Ui18Kip",
"@bewSwjemctHbDDmdHdqewdcPSAtLLPL@b8CipUgiGzlgO8YOG7vl8sY87i744YY",
"@bfqLHjhwedjhbDLHAwafjjhmfqhwDVZ@bp4RsRCUi1ORgOvpY7OsKzRvGlppUYz",
"@bmeDqPchdjfDhfeHdmqLmdeLDwjPHww@bY7YOvYRCv4KOCzKYYYCY4RG8YCsv8R",
"@bPjSeLmtwwmLDdamdjbLAActfeDmtjq@bOOsigUKGliK4vR778pl4llGYCCzpUK",
"@bwAAjjLtAHjmhAAmLbDLjPdqfSLZSAd@bs1C4ilz4GCC4giY7izgRl14iR7zz7K",
"@bAtjmweqPmSmtHeDcdAcqmVmAVfLDLe@bYCK4zGRYG7pCCsU4zgplRiGiKpUlYp",
"@bqSHdhwwdmPjjLwqqehHAVtZtthDHmS@bp144lspgK1YYzO744zsOUvUzgpvipU",
"@bVdDqSwLfSDdwSmqdHeeVmVPZqLLZPS@b7spp17z4lUOGKzl14vv7GsKROiYOpi",
"@bqmHwDddjVSjeewthPqddmDALVSDhDA@b8UYRRs77zRYvGvgpUKzsGiggl1RKK4",
"@bjDwSVVAmLfhhHDZqAfwmDDfPL2LwAL@bR1OlCiGKiK7sUOlgYOe1K4i1gKUlKp",
"@bwtjmePjeSjeDLhtdwtqhPSttZDjPmt@b814OGY1GGiK1iiszUs4OgURYKsvOvz",
"@bdHhVAdHPHejtDfLPAmZSL2Sjtmq2Z5@bK8YC8KC1UiUl7vl1gYRCOzl44v4Cpg",
"@bfqwVhthmwdVVPHSVjtjfVZwDjZjt2H@bOspz71iGz7OvplC1pOspRpilUCpeUC",
"@bmqccPwjjwHLZSmVqHDeZAV5SLPZDmq@bCU9K1O7KzK4OO1CYv41gKUpGs1gggU",
"@beAhqPtwDtdmmmAeSeeHZtZDjwHtf5Z@bvCUG4Op17i1KsG1YpglGYRepvslGOg",
"@bqPtSfmPSjAPDdqfAwVZqqh5Sf5DLHL@bUYs7RO1RR1pYgUpGpzGCpgiiRY4Ysv",
"@bfjdfwhHHSVmmAjADVVwHPmhSLjAhPt@bpsOpz1R1KO7ROCivGYYgeYigUUsvYU",
"@bwdwSHjqHmVftDAjfPLAjDVjS2j22tH@bR7UCU7GU4iCRKvKzOsgR1GdKlKReKz",
"@@@@@@@@@@@@@@@@@@@@@@@@@@@@@@@@@b@@@@@@@@@@@@@@@@@@@@@@@@@@@@@@",
"bbbbbbbbbbbbbbbbbbbbbbbbbbbbbbbbbbbbbbbbbbbbbbbbbbbbbbbbbbbbbbbb",
"@b3iiTi3y8T8CFy9FQ#NXJ#X09vQC3yT@b2WSkEfPfWhBIEEMWIEBexIuPBIhcde",
"@b303JlsFoCQ00yi03lXCX89sXTXFQJF@b5InSnnPMWu2WIxMWBPnhfSrnxMkdEu",
"@bilgQFCF3ylviFQ3v9JF3y#TN6vX6QJ@bxISEr5kE2BZxWZkSxkxEuBkhIMnuce",
"@bQXvogFN6yXg3Qo3XN3osvCXT9FXJ##@bu2BhrkBSurfuxdEZMMBSuxuknccIBu",
"@bvlieF3QCiFoyFFs366vvJ3TlJs0FJs@bWMZWPIhnxZEZWnWBWBIkxWWeESxdrd",
"@b3QlgsFvC3iloT3vT6Jy63lyQ0#v9J8@bIWEx5PPuEn2rBBIueuZSxnMuBdBekB",
"@bioQoQTsN30ToT03FsTT0l36JNJ6v9F@b5fIWrkMII2SxPBMkhnSnEuEfBIfIBn",
"@bg663QoNsNQXF3g6FlyX63QNTs38yX6@bkku5xuWfZMIPfxrMSMWuWSBrfdfefP",
"@b0lQ6Xy66sFQli3vC6iFlJ6N3yFFCQT@brrB2EnWEnPxMfxZEnEZMWnIundSfEe",
"@bQ3QyCF0gXggQFiXTlyCQF0JX6s0FX#@bSPnkBxkZkPBPWfurBWuBMSEEMWreBe",
"@bJ6sXC6isN0QNyy6Xy66i3Q0lX9JQX8@bMfPMZ55EkrEhShIfZZfkEBrkWxfePh",
"@bvJXi3TvCQvgg3XyQTNylNoFC8lNy3F@bnPPIMruI2IPhPE2fhBSkSMkePZhfEf",
"@bNTNsQTCiNTvTQJsNs68C00vNFvlFTT@brISkunPWM5ZBPSnEEEExrrWhWuhxnB",
"@bTXlN00yliJTTNQ3JJFFsvJCyvJvoQo@brMnZ2WuhMn2EZWrnMrWx2kWr2eWxxh",
"@bNNXCTiy6F36To36ol38XyXFlol8NQQ@bhB2kIrWBW2SM58nMSMxxEW2BuEMeff",
"@bN3yy6vC6s08lvQoNsCX3F6FN9Ns0#3@bIEEZErMSMMPBx82rn2uSSZ2BE2BhnI",
"@bsXTs8Jl83sNF63X8o986QsFoC6QTX6@brS2WMMW5EZx2hn85uIfxr5rMS2euEx",
"@bJN9oNJFo8866NQXvCT6F3oX60oT6J#@b5ZPBrZWEuhPM8Ih2Z5WuukrPBIBePu",
"@bNysy60vos36F098FJ038s0Q9yJ8QFv@bIkkZExnk5nBE25S2MPSBIZMuMZkIS2",
"@b89To0FoCJo8loJ6J#sJvNos8TFy9y9@bSZ2SZIxIrxuWrPMZnMMuWuuIkBrPhZ",
"@bQF89vQTJ3v9ss6C#NyCJ8900FX63#X@bnZMZWIS2Br28ZhnBWMSrxS5xZkBxkP",
"@b9vTTNQTyFvQ90CTJXQov0NCyyvF##T@bWkx582P2Pk58EkErn5ZSkkZkE2EInZ",
"@bJQ#v#0sJvQyvy9vC#s6J0TQ#Jv8X#Q@bkMMB52Wnrrhn5rI82I5282hhESfPEf",
"@bNN#N8vTJyTyC330QXy#038#y#Ny3CJ@b8xMZrWrnI2x5nxWI2IuEBPMEhSBukS",
"@b9yTyJQyo3sN0CN8X863Jy6#06##XQ#@bZrxZSSBrWSZ2rEkx2WkuMEhkkBMPku",
"@b#063FC8vT06NoyJ9QoFvFyFXJF#N##@b#SuI2W5SP5IBuxPWkfEEZrxSfnxnBf",
"@bsoNNFvy9QC3TJ0C9sJX3#JNJ#00#0#@bW8WEMSISkM5IrkPWInWEWhMu25WIrk",
"@b3oNTvTJ0vCQJl6N9vJNC#3#0#NC###@b#x55E8WMMnun28ZPEZZZWf5rhMhPnr",
"@bN0XF6FFyJo6Q98Ny#X3Cv0#0#JT3T6@bu#W888Sr5258BB5kuME52EPZkWPMkB",
"@bFTFJoNXl8XJvs0XQ3JyCQ6#96C##36@bZ#MIWrkukhExIxrhuxPZBnnIrneESZ"
};
